assets/home-tab/Asset/Gas.svg

<svg width="26" height="26" viewBox="0 0 26 26" fill="none" xmlns="http://www.w3.org/2000/svg">
<path d="M15.1429 7.62305C17.9227 7.62305 19.3131 7.62349 20.1888 8.49023C21.0642 9.35704 21.0782 10.7346 21.1068 13.4893C21.123 15.0522 21.1282 16.5234 21.1224 18.0215C21.1081 21.7286 21.1013 23.5823 19.9301 24.7734C19.9104 24.7934 19.8895 24.8135 19.8695 24.833C18.6738 25.9997 16.7925 26 13.0297 26C9.21317 26 7.30456 26 6.10779 24.8281C6.0875 24.8083 6.06711 24.7879 6.04724 24.7676C4.87511 23.5708 4.87537 21.6624 4.87537 17.8457V13.6162C4.87537 10.7914 4.87494 9.3787 5.75232 8.50098C6.63005 7.62324 8.04319 7.62305 10.8685 7.62305H15.1429ZM18.1918 0C19.1125 0 19.8597 0.746323 19.8597 1.66699C19.8597 2.03519 19.5609 2.33382 19.1927 2.33398H18.6469C18.6973 2.77573 18.6996 3.34683 18.6996 4.15723C18.6996 4.84534 18.6994 5.18954 18.5765 5.45703C18.4422 5.74955 18.2069 5.98382 17.9144 6.11816C17.6469 6.24099 17.3028 6.24121 16.6146 6.24121H9.61072C8.92244 6.24121 8.57746 6.24103 8.30994 6.11816C8.01765 5.98378 7.78307 5.74938 7.6488 5.45703C7.52595 5.18953 7.52576 4.84542 7.52576 4.15723C7.52576 3.34688 7.5271 2.77572 7.57751 2.33398H7.07849C6.71036 2.33379 6.4115 2.03517 6.4115 1.66699C6.41159 0.746323 7.15878 0 8.07947 0H18.1918ZM11.0052 2.34082C10.4668 2.34095 10.0306 2.77788 10.0306 3.31641C10.0309 3.85471 10.4669 4.29088 11.0052 4.29102H15.2191C15.7576 4.29102 16.1944 3.85479 16.1947 3.31641C16.1947 2.7778 15.7577 2.34082 15.2191 2.34082H11.0052Z" fill="#0066B4"/>
</svg>

<svg xmlns="http://www.w3.org/2000/svg" width="26" height="26" fill="none" viewBox="0 0 26 26"><path fill="#0066b4" d="M15.143 7.623c2.78 0 4.17 0 5.046.867.875.867.89 2.245.918 5 .016 1.562.021 3.033.015 4.531-.014 3.708-.02 5.561-1.192 6.752l-.06.06C18.673 26 16.792 26 13.03 26c-3.817 0-5.725 0-6.922-1.172l-.06-.06c-1.173-1.197-1.173-3.106-1.173-6.922v-4.23c0-2.825 0-4.237.877-5.115.878-.878 2.291-.878 5.116-.878zM18.192 0c.92 0 1.668.746 1.668 1.667a.667.667 0 0 1-.667.667h-.546c.05.442.053 1.013.053 1.823 0 .688 0 1.033-.123 1.3-.135.293-.37.527-.663.661-.267.123-.611.123-1.3.123H9.612c-.689 0-1.034 0-1.301-.123a1.35 1.35 0 0 1-.661-.661c-.123-.267-.123-.612-.123-1.3 0-.81.001-1.381.052-1.823h-.5a.667.667 0 0 1-.667-.667C6.412.747 7.16 0 8.08 0zm-7.187 2.34a.975.975 0 0 0 0 1.951h4.214a.975.975 0 1 0 0-1.95z"/></svg>
